assets/Cart.svg

<svg width="25" height="25" viewBox="0 0 25 25" fill="none" xmlns="http://www.w3.org/2000/svg">
<path d="M3.79175 5.34814H4.30211C5.15916 5.34814 5.91598 5.90712 6.16802 6.72626L9.22443 16.6596C9.47648 17.4787 10.2333 18.0377 11.0903 18.0377H18.0363C18.8601 18.0377 19.5953 17.5205 19.8737 16.7451L21.9078 11.0787C22.5927 9.17083 21.1787 7.16094 19.1516 7.16094H11.6007" stroke="white" stroke-width="1.69582" stroke-linecap="round"/>
<circle cx="11.1131" cy="21.4542" r="1.46418" fill="white"/>
<circle cx="17.9458" cy="21.4542" r="1.46418" fill="white"/>
</svg>

<svg width="25" height="25" fill="none" xmlns="http://www.w3.org/2000/svg"><path d="M3.792 5.348h.51c.857 0 1.614.56 1.866 1.378l3.056 9.934a1.952 1.952 0 0 0 1.866 1.378h6.946c.824 0 1.56-.518 1.838-1.293l2.034-5.666c.685-1.908-.73-3.918-2.756-3.918H11.6" stroke="#fff" stroke-width="1.696" stroke-linecap="round"/><circle cx="11.113" cy="21.454" r="1.464" fill="#fff"/><circle cx="17.946" cy="21.454" r="1.464" fill="#fff"/></svg>
